images/user-icon.svg

<svg width="30" height="30" viewBox="0 0 30 30" fill="none" xmlns="http://www.w3.org/2000/svg">
<path d="M14.835 15.9742C16.537 15.9742 18.1693 15.298 19.3729 14.0945C20.5764 12.891 21.2525 11.2587 21.2525 9.55667C21.2525 7.85464 20.5764 6.22232 19.3729 5.01881C18.1693 3.81529 16.537 3.13917 14.835 3.13917C13.133 3.13917 11.5007 3.81529 10.2971 5.01881C9.09363 6.22232 8.4175 7.85464 8.4175 9.55667C8.4175 11.2587 9.09363 12.891 10.2971 14.0945C11.5007 15.298 13.133 15.9742 14.835 15.9742ZM14.835 18.1133C12.5656 18.1133 10.3892 17.2118 8.78452 15.6071C7.17984 14.0025 6.27833 11.826 6.27833 9.55667C6.27833 7.2873 7.17984 5.11088 8.78452 3.50619C10.3892 1.9015 12.5656 1 14.835 1C17.1044 1 19.2808 1.9015 20.8855 3.50619C22.4902 5.11088 23.3917 7.2873 23.3917 9.55667C23.3917 11.826 22.4902 14.0025 20.8855 15.6071C19.2808 17.2118 17.1044 18.1133 14.835 18.1133ZM25.5308 28.8092V25.6004C25.5308 24.7494 25.1928 23.9332 24.591 23.3315C23.9893 22.7297 23.1731 22.3917 22.3221 22.3917H7.34792C6.4969 22.3917 5.68075 22.7297 5.07899 23.3315C4.47723 23.9332 4.13917 24.7494 4.13917 25.6004V28.8092C4.13917 29.0928 4.02648 29.3649 3.82589 29.5655C3.62531 29.7661 3.35325 29.8787 3.06958 29.8787C2.78591 29.8787 2.51386 29.7661 2.31327 29.5655C2.11269 29.3649 2 29.0928 2 28.8092V25.6004C2 24.1821 2.56344 22.8218 3.56637 21.8189C4.5693 20.8159 5.92956 20.2525 7.34792 20.2525H22.3221C23.7404 20.2525 25.1007 20.8159 26.1036 21.8189C27.1066 22.8218 27.67 24.1821 27.67 25.6004V28.8092C27.67 29.0928 27.5573 29.3649 27.3567 29.5655C27.1561 29.7661 26.8841 29.8787 26.6004 29.8787C26.3167 29.8787 26.0447 29.7661 25.8441 29.5655C25.6435 29.3649 25.5308 29.0928 25.5308 28.8092Z" fill="#1A1A1A"/>
<path d="M22.134 25.5016C22.0592 25.2586 21.9304 25.0696 21.7477 24.9346C21.5649 24.7975 21.3385 24.729 21.0685 24.729C20.8255 24.729 20.6085 24.7913 20.4174 24.9159C20.2285 25.0384 20.081 25.2191 19.9751 25.4579C19.8692 25.6968 19.8162 25.9813 19.8162 26.3115C19.8162 26.6459 19.8692 26.9335 19.9751 27.1745C20.081 27.4133 20.2295 27.595 20.4206 27.7196C20.6116 27.8442 20.8339 27.9065 21.0872 27.9065C21.3115 27.9065 21.5078 27.864 21.676 27.7788C21.8463 27.6916 21.9772 27.5691 22.0685 27.4112C22.162 27.2513 22.2108 27.0654 22.215 26.8536H21.1682V26.2118H23V26.7539C23 27.134 22.918 27.4663 22.7539 27.7508C22.5919 28.0353 22.3666 28.2544 22.0779 28.4081C21.7892 28.5597 21.459 28.6355 21.0872 28.6355C20.6739 28.6355 20.3095 28.5421 19.9938 28.3551C19.6781 28.1661 19.433 27.8972 19.2586 27.5483C19.0862 27.1973 19 26.7871 19 26.3178C19 25.8463 19.0883 25.4361 19.2648 25.0872C19.4434 24.7362 19.6885 24.4673 20 24.2804C20.3136 24.0935 20.6677 24 21.0623 24C21.3884 24 21.6874 24.0633 21.9595 24.19C22.2336 24.3167 22.4579 24.4943 22.6324 24.7227C22.8069 24.9491 22.9169 25.2087 22.9626 25.5016H22.134Z" fill="black"/>
</svg>

<svg xmlns="http://www.w3.org/2000/svg" width="30" height="30" fill="none"><path fill="#1A1A1A" d="M14.835 15.974a6.418 6.418 0 1 0 0-12.836 6.418 6.418 0 0 0 0 12.836Zm0 2.14a8.557 8.557 0 1 1 0-17.114 8.557 8.557 0 0 1 0 17.113Zm10.696 10.695V25.6a3.208 3.208 0 0 0-3.209-3.208H7.348A3.209 3.209 0 0 0 4.139 25.6v3.21a1.07 1.07 0 0 1-2.139 0V25.6a5.348 5.348 0 0 1 5.348-5.348h14.974A5.348 5.348 0 0 1 27.67 25.6v3.21a1.07 1.07 0 0 1-2.14 0Z"/><path fill="#000" d="M22.134 25.502a1.073 1.073 0 0 0-.386-.567 1.1 1.1 0 0 0-.68-.206c-.242 0-.46.062-.65.187a1.208 1.208 0 0 0-.443.542 2.095 2.095 0 0 0-.159.854c0 .334.053.621.16.862.105.24.254.421.445.546.19.124.413.187.666.187.224 0 .42-.043.589-.128a.932.932 0 0 0 .393-.368 1.13 1.13 0 0 0 .146-.557h-1.047v-.642H23v.542c0 .38-.082.712-.246.997a1.661 1.661 0 0 1-.676.657 2.1 2.1 0 0 1-.99.227c-.414 0-.779-.093-1.094-.28a1.911 1.911 0 0 1-.735-.807c-.173-.35-.259-.76-.259-1.23 0-.472.088-.882.265-1.23A1.94 1.94 0 0 1 20 24.28c.314-.187.668-.28 1.062-.28.326 0 .625.063.897.19.275.127.499.304.673.533.175.226.285.486.33.779h-.828Z"/></svg>
